X: 216
T:Wing Commander Donald McKenzie's
M:2/2
L:1/8
C:Phil Cunningham
R:reel
Z:Rob Greenway
K:A
cE~E2 cEBE|AFFE FAEA|~F3E FGAB|cBAB cffe|
cE~E2 cEBE|AFFE FAEA|~F3E FGAB|1 cABG ~A3B:|2 cABG ABce||
|:aefe c2Bc|AFEF ABce|faba fbaf|ecAB cBce|
aefe c2Bc|AFEF ABce|faba fbaf|1 ecBc ABce:|2 ecBc ~A3B||
<end>
<start>
